X: 13225
T: Fisher's
R: hornpipe
M: 4/4
K: Dmajor
(3ABc|:dAFA GBAG|FEFA dFGE|FAdc dcBA|BGEF GABc|
dAFA GBAG|FEFA dABg|1 ecdf ecdA:|2 ecdf ecdg||
fAdg faaf|edcd efge|fAdg faaf|(3gfe (3dcB A2d=c|
BGGG BGBd|AF A/B/c/d/ fd~A2|edBf dfec d (3ABc|
|:dAFA GBAG|FEFA dFGE|FAdc dcBA|BGEF GABc|
dAFA GBAG|FEFA dABg|1 ecdf ecdA:|2 ecd4 cd||
ecAc efge|fdcd fgaf|ecAc efge|(3gfe (3dcB A2 FA|
B~G3 BGBd|A~F3 Bcdg|fd~A2 edBf|dfec Hd4||

